svg/note_search_outline.svg

<svg xmlns="http://www.w3.org/2000/svg" viewBox="0 0 24 24"><path d="M15 3H5c-1.11 0-2 .89-2 2v5.82A6.4 6.4 0 0 1 5 9.5V5h7v5.82c.03.03.07.05.1.08.34.34.63.71.87 1.1H19v7h-6.03c-.24.39-.53.76-.87 1.1-.36.35-.75.64-1.16.9H19c1.11 0 2-.89 2-2V9zm-1 7V4.5l5.5 5.5zm-6.5 1C5 11 3 13 3 15.5c0 .88.25 1.71.69 2.4L.61 21 2 22.39l3.12-3.07c.69.43 1.51.68 2.38.68 2.5 0 4.5-2 4.5-4.5S10 11 7.5 11m0 7a2.5 2.5 0 0 1 0-5 2.5 2.5 0 0 1 0 5"/></svg>

<?xml version="1.0" encoding="UTF-8"?><!DOCTYPE svg PUBLIC "-//W3C//DTD SVG 1.1//EN" "http://www.w3.org/Graphics/SVG/1.1/DTD/svg11.dtd"><svg xmlns="http://www.w3.org/2000/svg" xmlns:xlink="http://www.w3.org/1999/xlink" version="1.1" id="mdi-note-search-outline" width="24" height="24" viewBox="0 0 24 24"><path d="M15 3H5C3.89 3 3 3.89 3 5V10.82C3.6 10.24 4.28 9.8 5 9.5V5H12V10.82C12.03 10.85 12.07 10.87 12.1 10.9C12.44 11.24 12.73 11.61 12.97 12H19V19H12.97C12.73 19.39 12.44 19.76 12.1 20.1C11.74 20.45 11.35 20.74 10.94 21H19C20.11 21 21 20.11 21 19V9L15 3M14 10V4.5L19.5 10H14M7.5 11C5 11 3 13 3 15.5C3 16.38 3.25 17.21 3.69 17.9L.61 21L2 22.39L5.12 19.32C5.81 19.75 6.63 20 7.5 20C10 20 12 18 12 15.5S10 11 7.5 11M7.5 18C6.12 18 5 16.88 5 15.5S6.12 13 7.5 13 10 14.12 10 15.5 8.88 18 7.5 18Z" /></svg>
